img/new-access/fun-book.svg

<svg width="68" height="67" viewBox="0 0 68 67" fill="none" xmlns="http://www.w3.org/2000/svg">
<g clip-path="url(#clip0_6983_79327)">
<path d="M16.1618 65.1673C16.0759 65.1673 16.0759 65.1673 15.9899 65.1673L0.429836 61.3954C0.257901 61.3954 0.171934 61.3096 0.0859671 61.1382C0 60.9667 0 60.7953 0 60.7096L14.6144 1.38685C14.7004 1.12967 14.9583 0.872495 15.3021 0.958222L30.9482 4.81591C31.1201 4.81591 31.2061 4.90164 31.292 5.07309C31.378 5.15882 31.378 5.33027 31.378 5.50172L16.7636 64.8244C16.6776 64.9959 16.4197 65.1673 16.1618 65.1673ZM1.20354 60.4524L15.732 64.0529L30.0885 5.7589L15.5601 2.15839L1.20354 60.4524Z" fill="#C47A2D"/>
<path d="M10.2347 59.3383C9.89083 59.3383 9.54696 59.3383 9.20309 59.2525C8.08552 58.9954 7.13988 58.3096 6.53811 57.2808C5.93634 56.3378 5.7644 55.1377 6.02231 54.0232C6.45214 52.0515 8.25745 50.7656 10.2347 50.7656C10.5786 50.7656 10.9224 50.7656 11.2663 50.8514C13.5874 51.4514 14.9629 53.7661 14.4471 56.0807C14.0172 58.0524 12.2979 59.3383 10.2347 59.3383ZM10.2347 51.8801C8.77325 51.8801 7.48375 52.9088 7.13988 54.2804C6.96794 55.1377 7.05391 55.9949 7.48375 56.6808C7.91358 57.3666 8.60132 57.8809 9.46099 58.1381C9.71889 58.2238 9.97679 58.2238 10.2347 58.2238C11.6961 58.2238 12.9856 57.1951 13.3295 55.8235C13.7593 54.109 12.7277 52.3944 11.0084 51.9658C10.7505 51.8801 10.4926 51.8801 10.2347 51.8801Z" fill="#C47A2D"/>
<path d="M13.2423 47.3383C12.8984 47.3383 12.5546 47.3383 12.2107 47.2525C9.88958 46.6525 8.51411 44.3378 9.02991 42.0232C9.54571 40.0515 11.2651 38.7656 13.2423 38.7656C13.5862 38.7656 13.93 38.7656 14.2739 38.8514C16.595 39.4514 17.9705 41.7661 17.4547 44.0807C16.9389 46.0524 15.2195 47.3383 13.2423 47.3383ZM13.2423 39.8801C11.7809 39.8801 10.4914 40.9088 10.1475 42.2804C9.71765 43.9949 10.7493 45.7095 12.4686 46.1381C12.7265 46.2238 12.9844 46.2238 13.2423 46.2238C14.7037 46.2238 15.9932 45.1951 16.3371 43.8235C16.767 42.109 15.7353 40.3944 14.016 39.9658C13.7581 39.8801 13.5002 39.8801 13.2423 39.8801Z" fill="#C47A2D"/>
<path d="M26.5672 10.1312C26.4813 10.1312 26.4813 10.1312 26.3953 10.1312L16.8529 7.73087C16.595 7.64514 16.3371 7.38796 16.4231 7.04506C16.5091 6.78788 16.767 6.5307 17.1108 6.61642L26.6532 9.01677C26.9111 9.10249 27.169 9.35967 27.083 9.70258C26.9971 9.95976 26.8251 10.1312 26.5672 10.1312Z" fill="#C47A2D"/>
<path d="M24.6766 17.7623C24.5906 17.7623 24.5906 17.7623 24.5047 17.7623L14.9623 15.4477C14.7044 15.3619 14.4465 15.1048 14.5325 14.7619C14.6185 14.5047 14.8764 14.2475 15.2202 14.3332L24.7626 16.6478C25.0205 16.7336 25.2784 16.9907 25.1924 17.3336C25.1064 17.5908 24.9345 17.7623 24.6766 17.7623Z" fill="#C47A2D"/>
<path d="M22.786 25.4732C22.7 25.4732 22.7 25.4732 22.614 25.4732L13.0717 23.1586C12.8138 23.0729 12.5559 22.8157 12.6419 22.4728C12.7278 22.2156 12.9857 21.9584 13.3296 22.0442L22.872 24.3588C23.1299 24.4445 23.3878 24.7017 23.3018 25.0446C23.2158 25.3018 23.0439 25.4732 22.786 25.4732Z" fill="#C47A2D"/>
<path d="M49.2557 66.8861H33.1799C32.836 66.8861 32.5781 66.6289 32.5781 66.286V5.33446C32.5781 4.99155 32.836 4.73438 33.1799 4.73438H49.2557C49.5996 4.73438 49.8575 4.99155 49.8575 5.33446V66.3717C49.8575 66.6289 49.5996 66.8861 49.2557 66.8861ZM33.7817 65.7716H48.7399V5.84882H33.7817V65.7716Z" fill="#C47A2D"/>
<path d="M41.2671 62.7641C38.86 62.7641 36.9688 60.7923 36.9688 58.4777C36.9688 56.0774 38.946 54.1914 41.2671 54.1914C43.6742 54.1914 45.5655 56.1631 45.5655 58.4777C45.5655 60.7923 43.5882 62.7641 41.2671 62.7641ZM41.2671 55.3059C39.4618 55.3059 38.0863 56.7632 38.0863 58.4777C38.0863 60.278 39.5478 61.6496 41.2671 61.6496C43.0724 61.6496 44.4479 60.1923 44.4479 58.4777C44.4479 56.6775 42.9864 55.3059 41.2671 55.3059Z" fill="#C47A2D"/>
<path d="M41.2671 50.4203C38.86 50.4203 36.9688 48.4486 36.9688 46.134C36.9688 43.7336 38.946 41.8477 41.2671 41.8477C43.6742 41.8477 45.5655 43.8194 45.5655 46.134C45.5655 48.4486 43.5882 50.4203 41.2671 50.4203ZM41.2671 42.8764C39.4618 42.8764 38.0863 44.3337 38.0863 46.0483C38.0863 47.8485 39.5478 49.2201 41.2671 49.2201C43.0724 49.2201 44.4479 47.7628 44.4479 46.0483C44.4479 44.3337 42.9864 42.8764 41.2671 42.8764Z" fill="#C47A2D"/>
<path d="M46.1599 10.9912H36.2736C35.9298 10.9912 35.6719 10.734 35.6719 10.3911C35.6719 10.0482 35.9298 9.79102 36.2736 9.79102H46.1599C46.5037 9.79102 46.7616 10.0482 46.7616 10.3911C46.7616 10.734 46.5037 10.9912 46.1599 10.9912Z" fill="#C47A2D"/>
<path d="M46.1599 18.872H36.2736C35.9298 18.872 35.6719 18.6149 35.6719 18.272C35.6719 17.9291 35.9298 17.6719 36.2736 17.6719H46.1599C46.5037 17.6719 46.7616 17.9291 46.7616 18.272C46.7616 18.6149 46.5037 18.872 46.1599 18.872Z" fill="#C47A2D"/>
<path d="M46.1599 26.7607H36.2736C35.9298 26.7607 35.6719 26.5035 35.6719 26.1606C35.6719 25.8177 35.9298 25.5605 36.2736 25.5605H46.1599C46.5037 25.5605 46.7616 25.8177 46.7616 26.1606C46.7616 26.5035 46.5037 26.7607 46.1599 26.7607Z" fill="#C47A2D"/>
<path d="M67.4823 66.8861H51.3205C50.9767 66.8861 50.7188 66.6289 50.7188 66.286V5.33446C50.7188 4.99155 50.9767 4.73438 51.3205 4.73438H67.3964C67.7402 4.73438 67.9981 4.99155 67.9981 5.33446V66.3717C67.9981 66.6289 67.7402 66.8861 67.4823 66.8861ZM51.9223 65.7716H66.8806V5.84882H51.9223V65.7716Z" fill="#C47A2D"/>
<path d="M59.4077 62.7641C57.0007 62.7641 55.1094 60.7923 55.1094 58.4777C55.1094 56.0774 57.0866 54.1914 59.4077 54.1914C61.8148 54.1914 63.7061 56.1631 63.7061 58.4777C63.7061 60.7923 61.8148 62.7641 59.4077 62.7641ZM59.4077 55.3059C57.6024 55.3059 56.227 56.7632 56.227 58.4777C56.227 60.278 57.6884 61.6496 59.4077 61.6496C61.213 61.6496 62.5885 60.1923 62.5885 58.4777C62.5885 56.6775 61.213 55.3059 59.4077 55.3059Z" fill="#C47A2D"/>
<path d="M59.4077 50.4203C57.0007 50.4203 55.1094 48.4486 55.1094 46.134C55.1094 43.7336 57.0866 41.8477 59.4077 41.8477C61.8148 41.8477 63.7061 43.8194 63.7061 46.134C63.7061 48.4486 61.8148 50.4203 59.4077 50.4203ZM59.4077 42.8764C57.6024 42.8764 56.227 44.3337 56.227 46.0483C56.227 47.8485 57.6884 49.2201 59.4077 49.2201C61.213 49.2201 62.5885 47.7628 62.5885 46.0483C62.5885 44.3337 61.213 42.8764 59.4077 42.8764Z" fill="#C47A2D"/>
<path d="M64.3083 10.9912H54.508C54.1642 10.9912 53.9062 10.734 53.9062 10.3911C53.9062 10.0482 54.1642 9.79102 54.508 9.79102H64.3942C64.7381 9.79102 64.996 10.0482 64.996 10.3911C64.996 10.734 64.6521 10.9912 64.3083 10.9912Z" fill="#C47A2D"/>
<path d="M64.3083 18.872H54.508C54.1642 18.872 53.9062 18.6149 53.9062 18.272C53.9062 17.9291 54.1642 17.6719 54.508 17.6719H64.3942C64.7381 17.6719 64.996 17.9291 64.996 18.272C64.996 18.6149 64.6521 18.872 64.3083 18.872Z" fill="#C47A2D"/>
<path d="M64.3083 26.7607H54.508C54.1642 26.7607 53.9062 26.5035 53.9062 26.1606C53.9062 25.8177 54.1642 25.5605 54.508 25.5605H64.3942C64.7381 25.5605 64.996 25.8177 64.996 26.1606C64.996 26.5035 64.6521 26.7607 64.3083 26.7607Z" fill="#C47A2D"/>
</g>
<defs>
<clipPath id="clip0_6983_79327">
<rect width="68" height="65.9236" fill="white" transform="translate(0 0.957031)"/>
</clipPath>
</defs>
</svg>

<svg width="68" height="67" fill="none" xmlns="http://www.w3.org/2000/svg"><g clip-path="url(#clip0_6983_79327)" fill="#C47A2D"><path d="M16.162 65.167h-.172L.43 61.395c-.172 0-.258-.085-.344-.257C0 60.967 0 60.795 0 60.71L14.614 1.387c.086-.257.344-.515.688-.429l15.646 3.858c.172 0 .258.086.344.257.086.086.086.257.086.429L16.764 64.824c-.086.172-.344.343-.602.343zM1.204 60.452l14.528 3.6L30.089 5.76 15.56 2.16 1.204 60.451z"/><path d="M10.235 59.338c-.344 0-.688 0-1.032-.086a4.125 4.125 0 01-2.665-1.971c-.602-.943-.774-2.143-.516-3.258.43-1.972 2.235-3.257 4.213-3.257.344 0 .687 0 1.031.085 2.321.6 3.697 2.915 3.181 5.23-.43 1.971-2.15 3.257-4.212 3.257zm0-7.458c-1.462 0-2.751 1.029-3.095 2.4-.172.858-.086 1.715.344 2.4.43.687 1.117 1.2 1.977 1.458.258.086.516.086.774.086 1.461 0 2.75-1.029 3.095-2.4a3.167 3.167 0 00-2.322-3.858c-.257-.086-.515-.086-.773-.086zm3.007-4.542c-.344 0-.687 0-1.031-.086-2.321-.6-3.697-2.914-3.181-5.229a4.312 4.312 0 014.212-3.257c.344 0 .688 0 1.032.085 2.321.6 3.697 2.915 3.18 5.23a4.312 4.312 0 01-4.212 3.257zm0-7.458c-1.461 0-2.75 1.029-3.095 2.4a3.167 3.167 0 002.322 3.858c.258.086.515.086.773.086 1.462 0 2.751-1.029 3.095-2.4a3.167 3.167 0 00-2.321-3.858c-.258-.086-.516-.086-.774-.086zm13.325-29.749h-.172l-9.542-2.4c-.258-.086-.516-.343-.43-.686.086-.257.344-.514.688-.429l9.542 2.4c.258.086.516.344.43.687-.086.257-.258.428-.516.428zm-1.89 7.631h-.172l-9.543-2.314c-.258-.086-.515-.343-.43-.686.086-.257.344-.514.688-.429l9.543 2.315c.257.086.515.343.43.686-.087.257-.259.428-.516.428zm-1.891 7.711h-.172l-9.542-2.314c-.258-.086-.516-.343-.43-.686.086-.257.344-.515.688-.429l9.542 2.315c.258.085.516.343.43.686-.086.257-.258.428-.516.428zm26.47 41.413H33.18a.587.587 0 01-.602-.6V5.334c0-.342.258-.6.602-.6h16.076c.344 0 .602.258.602.6v61.038c0 .257-.258.514-.602.514zm-15.474-1.114H48.74V5.849H33.782v59.923z"/><path d="M41.267 62.764c-2.407 0-4.298-1.972-4.298-4.286 0-2.4 1.977-4.287 4.298-4.287 2.407 0 4.298 1.972 4.298 4.287 0 2.314-1.977 4.286-4.298 4.286zm0-7.458a3.169 3.169 0 00-3.18 3.172 3.17 3.17 0 003.18 3.172 3.169 3.169 0 003.18-3.172c0-1.8-1.46-3.172-3.18-3.172zm0-4.886c-2.407 0-4.298-1.971-4.298-4.286 0-2.4 1.977-4.286 4.298-4.286 2.407 0 4.298 1.971 4.298 4.286 0 2.315-1.977 4.286-4.298 4.286zm0-7.544a3.169 3.169 0 00-3.18 3.172c0 1.8 1.46 3.172 3.18 3.172a3.169 3.169 0 003.18-3.172c0-1.714-1.46-3.172-3.18-3.172zm4.893-31.885h-9.886a.587.587 0 01-.602-.6c0-.343.258-.6.602-.6h9.886c.344 0 .602.257.602.6 0 .343-.258.6-.602.6zm0 7.881h-9.886a.587.587 0 01-.602-.6c0-.343.258-.6.602-.6h9.886c.344 0 .602.257.602.6 0 .343-.258.6-.602.6zm0 7.888h-9.886a.587.587 0 01-.602-.6c0-.342.258-.6.602-.6h9.886c.344 0 .602.258.602.6 0 .343-.258.6-.602.6zm21.322 40.126H51.321a.587.587 0 01-.602-.6V5.334c0-.342.258-.6.602-.6h16.075c.344 0 .602.258.602.6v61.038c0 .257-.258.514-.516.514zm-15.56-1.114h14.959V5.849H51.922v59.923z"/><path d="M59.408 62.764c-2.407 0-4.299-1.972-4.299-4.286 0-2.4 1.978-4.287 4.299-4.287 2.407 0 4.298 1.972 4.298 4.287 0 2.314-1.891 4.286-4.298 4.286zm0-7.458a3.169 3.169 0 00-3.181 3.172c0 1.8 1.461 3.172 3.18 3.172a3.169 3.169 0 003.182-3.172c0-1.8-1.376-3.172-3.181-3.172zm0-4.886c-2.407 0-4.299-1.971-4.299-4.286 0-2.4 1.978-4.286 4.299-4.286 2.407 0 4.298 1.971 4.298 4.286 0 2.315-1.891 4.286-4.298 4.286zm0-7.544a3.169 3.169 0 00-3.181 3.172c0 1.8 1.461 3.172 3.18 3.172a3.169 3.169 0 003.182-3.172 3.169 3.169 0 00-3.181-3.172zm4.9-31.885h-9.8a.587.587 0 01-.602-.6c0-.343.258-.6.602-.6h9.886c.344 0 .602.257.602.6 0 .343-.344.6-.688.6zm0 7.881h-9.8a.587.587 0 01-.602-.6c0-.343.258-.6.602-.6h9.886c.344 0 .602.257.602.6 0 .343-.344.6-.688.6zm0 7.888h-9.8a.587.587 0 01-.602-.6c0-.342.258-.6.602-.6h9.886c.344 0 .602.258.602.6 0 .343-.344.6-.688.6z"/></g><defs><clipPath id="clip0_6983_79327"><path fill="#fff" transform="translate(0 .957)" d="M0 0h68v65.924H0z"/></clipPath></defs></svg>
